src/assets/svg/skill/typescript.svg

<svg width="50" height="50" viewBox="0 0 50 50" fill="none" xmlns="http://www.w3.org/2000/svg">
    <g clip-path="url(#clip0_22511_1634)">
        <path
            d="M0 25V50H50V0H0V25ZM40.2937 23.0083C41.5646 23.325 42.5312 23.8896 43.4208 24.8104C43.8812 25.3021 44.5646 26.1979 44.6187 26.4146C44.6354 26.4771 42.4604 27.9354 41.1437 28.7542C41.0958 28.7854 40.9042 28.5792 40.6917 28.2625C40.0458 27.325 39.3729 26.9208 38.3417 26.85C36.825 26.7458 35.85 27.5396 35.8583 28.8646C35.8445 29.1904 35.9179 29.514 36.0708 29.8021C36.4042 30.4917 37.025 30.9062 38.9667 31.7458C42.5479 33.2875 44.0792 34.3021 45.0312 35.7458C46.0937 37.3563 46.3333 39.9292 45.6104 41.8417C44.8187 43.9208 42.85 45.3333 40.0792 45.8C39.2229 45.9521 37.1917 45.9292 36.2708 45.7625C34.2625 45.4042 32.3583 44.4125 31.1833 43.1104C30.7229 42.6042 29.825 41.2771 29.8813 41.1833C29.9042 41.15 30.1104 41.0229 30.3396 40.8896C30.5646 40.7625 31.4042 40.2771 32.1979 39.8167L33.6354 38.9833L33.9375 39.4292C34.3583 40.0708 35.2771 40.9521 35.8333 41.2458C37.4292 42.0875 39.6187 41.9688 40.6979 41C40.9149 40.8172 41.0867 40.5867 41.1998 40.3265C41.313 40.0662 41.3643 39.7834 41.35 39.5C41.35 38.9208 41.2771 38.6667 40.975 38.2292C40.5875 37.675 39.7937 37.2083 37.5396 36.2292C34.9604 35.1187 33.85 34.4292 32.8333 33.3333C32.1988 32.6101 31.7302 31.7568 31.4604 30.8333C31.2708 30.1271 31.2229 28.3562 31.3729 27.6437C31.9042 25.15 33.7854 23.4146 36.5 22.8979C37.3812 22.7312 39.4292 22.7937 40.2937 23.0083ZM28.5562 25.0958L28.5729 27.1437H22.0625V45.6354H17.4583V27.1437H10.9542V25.1354C10.9542 24.0229 10.9771 23.0937 11.0083 23.0729C11.0333 23.0396 14.9938 23.0229 19.7938 23.0312L28.5333 23.0562L28.5562 25.0958Z"
            fill="#e8e8e8" />
    </g>
    <defs>
        <clipPath id="clip0_22511_1634">
            <rect width="50" height="50" rx="25" />
        </clipPath>
    </defs>
</svg>

<svg width="50" height="50" fill="none" xmlns="http://www.w3.org/2000/svg"><g clip-path="url(#a)"><path d="M0 25v25h50V0H0v25zm40.294-1.992c1.27.317 2.237.882 3.127 1.802.46.492 1.144 1.388 1.198 1.605.016.062-2.159 1.52-3.475 2.34-.048.03-.24-.176-.452-.492-.646-.938-1.32-1.342-2.35-1.413-1.517-.104-2.492.69-2.484 2.015-.014.325.06.649.213.937.333.69.954 1.104 2.896 1.944 3.58 1.542 5.112 2.556 6.064 4 1.063 1.61 1.302 4.183.58 6.096-.792 2.079-2.761 3.491-5.532 3.958-.856.152-2.887.13-3.808-.037-2.008-.359-3.913-1.35-5.088-2.653-.46-.506-1.358-1.833-1.302-1.927.023-.033.23-.16.459-.293.225-.127 1.064-.613 1.858-1.073l1.437-.834.303.446c.42.642 1.34 1.523 1.895 1.817 1.596.841 3.786.723 4.865-.246a1.84 1.84 0 0 0 .652-1.5c0-.58-.073-.833-.375-1.27-.388-.555-1.181-1.022-3.435-2-2.58-1.111-3.69-1.8-4.707-2.897a6.595 6.595 0 0 1-1.373-2.5c-.19-.706-.237-2.477-.087-3.19.531-2.493 2.412-4.228 5.127-4.745.881-.167 2.93-.104 3.794.11zm-11.738 2.088.017 2.048h-6.51v18.491h-4.605V27.144h-6.504v-2.009c0-1.112.023-2.041.054-2.062.025-.033 3.986-.05 8.786-.042l8.74.025.022 2.04z" fill="#e8e8e8"/></g><defs><clipPath id="a"><rect width="50" height="50" rx="25"/></clipPath></defs></svg>
